img/server.svg

<svg id="Layer_1" xmlns="http://www.w3.org/2000/svg" viewBox="0 0 400 400"><defs><style>.cls-1{fill:#08b6a9}.cls-2{stroke-dasharray:0 0 16 21}.cls-2,.cls-3,.cls-4,.cls-5{stroke-linecap:round;stroke-linejoin:round}.cls-2,.cls-3,.cls-4,.cls-5,.cls-6{stroke:#010101;stroke-width:8px}.cls-2,.cls-3,.cls-6{fill:none}.cls-3{stroke-dasharray:0 0 12 21}.cls-4{fill:#d6edea}.cls-5{fill:#add7f3}.cls-6{stroke-miterlimit:10}</style></defs><rect class="cls-5" x="128.5" y="151.86" width="133.6" height="24.85" rx="12.42" ry="12.42"/><rect class="cls-5" x="128.5" y="192.1" width="133.6" height="24.85" rx="12.42" ry="12.42"/><rect class="cls-5" x="128.5" y="232.33" width="133.6" height="24.85" rx="12.42" ry="12.42"/><circle class="cls-4" cx="249.67" cy="164.28" r="12.42"/><circle class="cls-4" cx="249.67" cy="204.52" r="12.42"/><circle class="cls-4" cx="249.67" cy="244.76" r="12.42"/><path class="cls-4" d="M221.11 164.28h-10.92m-20.8 0h-10.92m-20.79 0h-10.92m74.35 40.24h-10.92m-20.8 0h-10.92m-20.79 0h-10.92m74.35 40.24h-10.92m-20.8 0h-10.92m-20.79 0h-10.92"/><path class="cls-1" d="M111.76 138.12c6.33.39 11.53-5.93 11.2-13.61-.27-6.58-4.68-11.93-10.1-12.26-6.33-.39-11.54 5.93-11.21 13.61.28 6.58 4.68 11.92 10.11 12.25Z"/><path class="cls-6" d="M105.44 141.19c10.08.51 18.36-7.78 17.85-17.86-.44-8.64-7.45-15.65-16.09-16.09-10.09-.51-18.38 7.78-17.86 17.87.44 8.63 7.46 15.65 16.1 16.08Z"/><path class="cls-1" d="M57.25 198.33c6.33.39 11.53-5.93 11.2-13.61-.27-6.58-4.68-11.93-10.1-12.26-6.33-.39-11.54 5.93-11.21 13.61.28 6.58 4.68 11.92 10.11 12.25Z"/><path class="cls-6" d="M50.92 201.4c10.08.51 18.36-7.78 17.85-17.86-.44-8.64-7.45-15.65-16.09-16.09-10.09-.51-18.38 7.78-17.86 17.87.44 8.63 7.46 15.65 16.1 16.08Z"/><path class="cls-3" d="M156.92 151.86v-28.78h-33.63"/><path class="cls-2" d="M189.39 151.86V73.02H51.15v94.43"/><path class="cls-1" d="M306.93 298.73c6.33.39 11.53-5.93 11.2-13.61-.27-6.58-4.68-11.93-10.1-12.26-6.33-.39-11.54 5.93-11.21 13.61.28 6.58 4.69 11.92 10.11 12.25Z"/><path class="cls-6" d="M300.6 301.8c10.08.51 18.36-7.78 17.85-17.86-.44-8.64-7.45-15.65-16.09-16.09-10.09-.51-18.38 7.78-17.86 17.87.44 8.63 7.46 15.65 16.1 16.08Z"/><path class="cls-1" d="M361.44 238.52c6.33.39 11.53-5.93 11.2-13.61-.27-6.58-4.68-11.93-10.1-12.26-6.33-.39-11.54 5.93-11.21 13.61.28 6.58 4.69 11.92 10.11 12.25Z"/><path class="cls-6" d="M355.12 241.6c10.08.51 18.36-7.78 17.85-17.86-.44-8.64-7.45-15.65-16.09-16.09-10.09-.51-18.38 7.78-17.86 17.87.44 8.63 7.46 15.65 16.1 16.08Z"/><path class="cls-3" d="M250.87 257.18v28.79h33.64"/><path class="cls-2" d="M212.95 257.18v78.84h143.7V241.6"/></svg>

<svg id="Layer_1" xmlns="http://www.w3.org/2000/svg" viewBox="0 0 400 400"><defs><style>.cls-1{fill:#08b6a9}.cls-2{stroke-dasharray:0 0 16 21}.cls-2,.cls-3,.cls-4,.cls-5{stroke-linecap:round;stroke-linejoin:round}.cls-2,.cls-3,.cls-4,.cls-5,.cls-6{stroke:#010101;stroke-width:8px}.cls-2,.cls-3,.cls-6{fill:none}.cls-3{stroke-dasharray:0 0 12 21}.cls-4{fill:#d6edea}.cls-5{fill:#add7f3}.cls-6{stroke-miterlimit:10}</style></defs><rect class="cls-5" x="128.5" y="151.86" width="133.6" height="24.85" rx="12.42" ry="12.42"/><rect class="cls-5" x="128.5" y="192.1" width="133.6" height="24.85" rx="12.42" ry="12.42"/><rect class="cls-5" x="128.5" y="232.33" width="133.6" height="24.85" rx="12.42" ry="12.42"/><circle class="cls-4" cx="249.67" cy="164.28" r="12.42"/><circle class="cls-4" cx="249.67" cy="204.52" r="12.42"/><circle class="cls-4" cx="249.67" cy="244.76" r="12.42"/><path class="cls-4" d="M221.11 164.28h-10.92M189.39 164.28h-10.92M157.68 164.28h-10.92M221.11 204.52h-10.92M189.39 204.52h-10.92M157.68 204.52h-10.92M221.11 244.76h-10.92M189.39 244.76h-10.92M157.68 244.76h-10.92"/><path class="cls-1" d="M111.76 138.12c6.33.39 11.53-5.93 11.2-13.61-.27-6.58-4.68-11.93-10.1-12.26-6.33-.39-11.54 5.93-11.21 13.61.28 6.58 4.68 11.92 10.11 12.25Z"/><path class="cls-6" d="M105.44 141.19c10.08.51 18.36-7.78 17.85-17.86-.44-8.64-7.45-15.65-16.09-16.09-10.09-.51-18.38 7.78-17.86 17.87.44 8.63 7.46 15.65 16.1 16.08Z"/><path class="cls-1" d="M57.25 198.33c6.33.39 11.53-5.93 11.2-13.61-.27-6.58-4.68-11.93-10.1-12.26-6.33-.39-11.54 5.93-11.21 13.61.28 6.58 4.68 11.92 10.11 12.25Z"/><path class="cls-6" d="M50.92 201.4c10.08.51 18.36-7.78 17.85-17.86-.44-8.64-7.45-15.65-16.09-16.09-10.09-.51-18.38 7.78-17.86 17.87.44 8.63 7.46 15.65 16.1 16.08Z"/><path class="cls-3" d="M156.92 151.86v-28.78h-33.63"/><path class="cls-2" d="M189.39 151.86V73.02H51.15v94.43"/><path class="cls-1" d="M306.93 298.73c6.33.39 11.53-5.93 11.2-13.61-.27-6.58-4.68-11.93-10.1-12.26-6.33-.39-11.54 5.93-11.21 13.61.28 6.58 4.69 11.92 10.11 12.25Z"/><path class="cls-6" d="M300.6 301.8c10.08.51 18.36-7.78 17.85-17.86-.44-8.64-7.45-15.65-16.09-16.09-10.09-.51-18.38 7.78-17.86 17.87.44 8.63 7.46 15.65 16.1 16.08Z"/><path class="cls-1" d="M361.44 238.52c6.33.39 11.53-5.93 11.2-13.61-.27-6.58-4.68-11.93-10.1-12.26-6.33-.39-11.54 5.93-11.21 13.61.28 6.58 4.69 11.92 10.11 12.25Z"/><path class="cls-6" d="M355.12 241.6c10.08.51 18.36-7.78 17.85-17.86-.44-8.64-7.45-15.65-16.09-16.09-10.09-.51-18.38 7.78-17.86 17.87.44 8.63 7.46 15.65 16.1 16.08Z"/><path class="cls-3" d="M250.87 257.18v28.79h33.64"/><path class="cls-2" d="M212.95 257.18v78.84h143.7V241.6"/></svg>
